images/pig-scheme/okorok.svg

<svg width="238" height="275" viewBox="0 0 238 275" fill="none" xmlns="http://www.w3.org/2000/svg">
<path d="M237.288 116.01C237.288 117.94 237.248 119.86 237.178 121.78C236.938 128.76 236.358 135.67 235.558 142.74C235.318 144.87 235.058 147.01 234.788 149.17C233.888 156.33 232.818 163.72 231.728 171.57C231.418 173.72 231.118 175.91 230.818 178.14C229.888 185.06 228.958 192.35 228.128 200.17C227.908 202.23 227.697 204.32 227.497 206.46C226.947 212.17 226.467 218.15 226.068 224.46C221.827 222.97 216.977 222.28 211.688 222.27C209.777 222.26 207.808 222.35 205.778 222.52C198.308 223.11 190.158 224.81 181.708 227.25C178.988 228.03 176.238 228.9 173.467 229.83C162.628 233.45 151.538 238.08 140.978 242.98C137.268 244.7 133.617 246.46 130.077 248.22C110.817 257.79 94.5075 267.47 86.6975 272.26C84.6075 273.54 83.1175 274.47 82.3475 274.96C81.8975 274.12 81.4475 273.24 80.9775 272.32C79.0475 268.5 76.9675 264.04 74.8275 259.13C74.2675 257.84 73.6975 256.52 73.1275 255.17C71.2975 250.82 69.4375 246.19 67.5975 241.36C67.0875 240 66.5675 238.63 66.0575 237.24C64.3375 232.57 62.6475 227.76 61.0475 222.91C60.5675 221.49 60.1075 220.07 59.6575 218.64C58.0575 213.66 56.5675 208.65 55.2275 203.73C54.8075 202.24 54.4175 200.75 54.0275 199.27C52.6275 193.81 51.4175 188.5 50.4875 183.47C50.1775 181.83 49.8975 180.21 49.6575 178.64C48.7675 172.94 48.2775 167.7 48.3175 163.15C48.3175 162.32 48.3375 161.46 48.3675 160.59C48.4375 158.65 48.5775 156.61 48.7575 154.54C49.3975 147.19 50.5775 139.3 51.0175 132.94C51.1275 131.36 51.1875 129.89 51.1875 128.53C50.4275 128.99 49.5275 129.42 48.5075 129.79C43.4775 131.66 35.5175 132.44 27.4875 131.47C25.8575 131.28 24.2275 131.02 22.6175 130.68C17.5975 129.6 12.7875 127.79 8.8975 125.06C7.7875 124.28 6.7475 123.42 5.8075 122.49C2.3675 119.08 0.1575 114.63 0.0075 108.95C-0.0025 108.56 -0.0025 108.16 0.0075 107.76C0.0075 100.47 3.7975 100.97 5.1475 100.97C5.4175 100.97 5.8575 101.55 6.4875 102.47C8.1575 104.93 11.1375 109.85 15.6875 112.61C16.9075 113.35 18.2375 113.94 19.6875 114.27C20.5975 114.49 21.5575 114.61 22.5575 114.61C25.7275 114.61 26.2075 110.12 37.1475 110.12C37.1475 109.06 34.0775 106.6 30.6875 103.28C29.7575 102.38 28.8175 101.41 27.9075 100.39C24.6975 96.82 21.8975 92.58 21.8975 88.16C21.8975 87.79 21.9075 87.41 21.9275 87.03C21.9975 84.87 22.3275 82.58 22.9675 80.33C24.8275 73.67 29.3775 67.3 38.2475 65.05C40.1975 64.55 42.3575 64.26 44.7475 64.21C45.0275 64.19 45.3075 64.19 45.5975 64.19C52.2075 64.19 57.7275 65.08 62.3675 65.93C64.0775 66.25 65.6675 66.56 67.1475 66.81C72.7475 67.8 76.7575 68.06 79.7175 65.09C79.4575 64.21 92.2175 52.2 115.227 38.07C119.387 35.51 123.897 32.88 128.717 30.24C139.408 24.37 151.668 18.43 165.318 12.98C168.298 11.8 171.348 10.63 174.458 9.5C183.338 6.26 192.747 3.26 202.637 0.660004C203.467 0.430004 204.318 0.22 205.158 0C205.568 0.87 205.978 1.73 206.378 2.58C208.527 7.16 210.548 11.58 212.438 15.86C213.018 17.19 213.588 18.51 214.148 19.81C216.198 24.55 218.068 29.11 219.788 33.51C220.327 34.89 220.858 36.25 221.368 37.59C223.238 42.55 224.918 47.3 226.418 51.88C226.888 53.33 227.338 54.76 227.778 56.18C229.408 61.45 230.798 66.49 231.958 71.34C232.338 72.89 232.688 74.43 233.018 75.94C234.268 81.67 235.198 87.14 235.878 92.42C236.088 94.14 236.288 95.83 236.448 97.51C237.068 103.87 237.327 109.99 237.288 116.01Z" fill="#C21921"/>
<path fill-rule="evenodd" clip-rule="evenodd" d="M6.4875 102.47L0.0075 108.95C-0.0025 108.56 -0.0025 108.16 0.0075 107.76C0.0075 100.47 3.7975 100.97 5.1475 100.97C5.4175 100.97 5.8575 101.55 6.4875 102.47Z" fill="#9E1B1E"/>
<path fill-rule="evenodd" clip-rule="evenodd" d="M44.7475 64.21L21.9275 87.03C21.9975 84.87 22.3275 82.58 22.9675 80.33L38.2475 65.05C40.1975 64.55 42.3575 64.26 44.7475 64.21Z" fill="#9E1B1E"/>
<path fill-rule="evenodd" clip-rule="evenodd" d="M15.6876 112.61C16.9076 113.35 18.2376 113.94 19.6876 114.27L8.89762 125.06C7.78762 124.28 6.74762 123.42 5.80762 122.49L15.6876 112.61Z" fill="#9E1B1E"/>
<path fill-rule="evenodd" clip-rule="evenodd" d="M67.1475 66.8099L30.6875 103.28C29.7575 102.38 28.8175 101.41 27.9075 100.39L62.3675 65.9299C64.0775 66.2499 65.6675 66.5599 67.1475 66.8099Z" fill="#9E1B1E"/>
<path fill-rule="evenodd" clip-rule="evenodd" d="M128.717 30.24L27.4874 131.47C25.8574 131.28 24.2274 131.02 22.6174 130.68L115.227 38.07C119.387 35.51 123.897 32.88 128.717 30.24Z" fill="#9E1B1E"/>
<path fill-rule="evenodd" clip-rule="evenodd" d="M51.0176 132.94C51.1276 131.36 51.1876 129.89 51.1876 128.53C50.4276 128.99 49.5276 129.42 48.5076 129.79L165.318 12.98C168.298 11.8 171.348 10.63 174.458 9.5L51.0176 132.94Z" fill="#9E1B1E"/>
<path fill-rule="evenodd" clip-rule="evenodd" d="M206.377 2.58L48.3674 160.59C48.4374 158.65 48.5774 156.61 48.7574 154.54L202.637 0.660004C203.467 0.430004 204.317 0.22 205.157 0C205.567 0.87 205.977 1.73 206.377 2.58Z" fill="#9E1B1E"/>
<path fill-rule="evenodd" clip-rule="evenodd" d="M214.147 19.8101L50.4875 183.47C50.1775 181.83 49.8975 180.21 49.6575 178.64L212.437 15.8601C213.017 17.1901 213.587 18.5101 214.147 19.8101Z" fill="#9E1B1E"/>
<path fill-rule="evenodd" clip-rule="evenodd" d="M221.368 37.59L55.2276 203.73C54.8076 202.24 54.4176 200.75 54.0276 199.27L219.788 33.51C220.328 34.89 220.858 36.25 221.368 37.59Z" fill="#9E1B1E"/>
<path fill-rule="evenodd" clip-rule="evenodd" d="M227.777 56.1799L61.0475 222.91C60.5675 221.49 60.1075 220.07 59.6575 218.64L226.417 51.8799C226.887 53.3299 227.337 54.7599 227.777 56.1799Z" fill="#9E1B1E"/>
<path fill-rule="evenodd" clip-rule="evenodd" d="M233.018 75.9401L67.5976 241.36C67.0876 240 66.5676 238.63 66.0576 237.24L231.958 71.3401C232.338 72.8901 232.688 74.4301 233.018 75.9401Z" fill="#9E1B1E"/>
<path fill-rule="evenodd" clip-rule="evenodd" d="M236.447 97.51L74.8274 259.13C74.2674 257.84 73.6974 256.52 73.1274 255.17L235.877 92.42C236.087 94.14 236.287 95.83 236.447 97.51Z" fill="#9E1B1E"/>
<path fill-rule="evenodd" clip-rule="evenodd" d="M237.288 116.01C237.288 117.94 237.248 119.86 237.178 121.78L86.6975 272.26C84.6075 273.54 83.1175 274.47 82.3475 274.96C81.8975 274.12 81.4475 273.24 80.9775 272.32L237.288 116.01Z" fill="#9E1B1E"/>
<path fill-rule="evenodd" clip-rule="evenodd" d="M235.557 142.74C235.317 144.87 235.057 147.01 234.787 149.17L140.977 242.98C137.267 244.7 133.617 246.46 130.077 248.22L235.557 142.74Z" fill="#9E1B1E"/>
<path fill-rule="evenodd" clip-rule="evenodd" d="M231.728 171.57C231.418 173.72 231.118 175.91 230.818 178.14L181.708 227.25C178.988 228.03 176.238 228.9 173.468 229.83L231.728 171.57Z" fill="#9E1B1E"/>
<path fill-rule="evenodd" clip-rule="evenodd" d="M228.128 200.17C227.908 202.23 227.698 204.32 227.498 206.46L211.688 222.27C209.778 222.26 207.808 222.35 205.778 222.52L228.128 200.17Z" fill="#9E1B1E"/>
</svg>

<svg width="238" height="275" fill="none" xmlns="http://www.w3.org/2000/svg"><path d="M237.288 116.01c0 1.93-.04 3.85-.11 5.77-.24 6.98-.82 13.89-1.62 20.96-.24 2.13-.5 4.27-.77 6.43-.9 7.16-1.97 14.55-3.06 22.4-.31 2.15-.61 4.34-.91 6.57-.93 6.92-1.86 14.21-2.69 22.03-.22 2.06-.431 4.15-.631 6.29-.55 5.71-1.03 11.69-1.429 18-4.241-1.49-9.091-2.18-14.38-2.19-1.911-.01-3.88.08-5.91.25-7.47.59-15.62 2.29-24.07 4.73-2.72.78-5.47 1.65-8.241 2.58-10.839 3.62-21.929 8.25-32.489 13.15-3.71 1.72-7.361 3.48-10.901 5.24-19.26 9.57-35.57 19.25-43.38 24.04a333.05 333.05 0 00-4.35 2.7c-.45-.84-.9-1.72-1.37-2.64-1.93-3.82-4.01-8.28-6.15-13.19-.56-1.29-1.13-2.61-1.7-3.96-1.83-4.35-3.69-8.98-5.53-13.81-.51-1.36-1.03-2.73-1.54-4.12-1.72-4.67-3.41-9.48-5.01-14.33-.48-1.42-.94-2.84-1.39-4.27-1.6-4.98-3.09-9.99-4.43-14.91-.42-1.49-.81-2.98-1.2-4.46-1.4-5.46-2.61-10.77-3.54-15.8-.31-1.64-.59-3.26-.83-4.83-.89-5.7-1.38-10.94-1.34-15.49 0-.83.02-1.69.05-2.56.07-1.94.21-3.98.39-6.05.64-7.35 1.82-15.24 2.26-21.6.11-1.58.17-3.05.17-4.41-.76.46-1.66.89-2.68 1.26-5.03 1.87-12.99 2.65-21.02 1.68-1.63-.19-3.26-.45-4.87-.79-5.02-1.08-9.83-2.89-13.72-5.62-1.11-.78-2.15-1.64-3.09-2.57-3.44-3.41-5.65-7.86-5.8-13.54-.01-.39-.01-.79 0-1.19 0-7.29 3.79-6.79 5.14-6.79.27 0 .71.58 1.34 1.5 1.67 2.46 4.65 7.38 9.2 10.14 1.22.74 2.55 1.33 4 1.66.91.22 1.87.34 2.87.34 3.17 0 3.65-4.49 14.59-4.49 0-1.06-3.07-3.52-6.46-6.84-.93-.9-1.87-1.87-2.78-2.89-3.21-3.57-6.01-7.81-6.01-12.23 0-.37.01-.75.03-1.13.07-2.16.4-4.45 1.04-6.7 1.86-6.66 6.41-13.03 15.28-15.28 1.95-.5 4.11-.79 6.5-.84.28-.02.56-.02.85-.02 6.61 0 12.13.89 16.77 1.74 1.71.32 3.3.63 4.78.88 5.6.99 9.61 1.25 12.57-1.72-.26-.88 12.5-12.89 35.51-27.02 4.16-2.56 8.67-5.19 13.49-7.83a332.032 332.032 0 0136.601-17.26c2.98-1.18 6.03-2.35 9.14-3.48 8.88-3.24 18.289-6.24 28.179-8.84.83-.23 1.681-.44 2.521-.66.41.87.82 1.73 1.22 2.58 2.149 4.58 4.17 9 6.06 13.28.58 1.33 1.15 2.65 1.71 3.95 2.05 4.74 3.92 9.3 5.64 13.7.539 1.38 1.07 2.74 1.58 4.08 1.87 4.96 3.55 9.71 5.05 14.29.47 1.45.92 2.88 1.36 4.3 1.63 5.27 3.02 10.31 4.18 15.16.38 1.55.73 3.09 1.06 4.6 1.25 5.73 2.18 11.2 2.86 16.48a177.898 177.898 0 011.41 23.59z" fill="#C21921"/><path fill-rule="evenodd" clip-rule="evenodd" d="M6.487 102.47l-6.48 6.48c-.01-.39-.01-.79 0-1.19 0-7.29 3.79-6.79 5.14-6.79.27 0 .71.58 1.34 1.5zm38.261-38.26l-22.82 22.82c.07-2.16.4-4.45 1.04-6.7l15.28-15.28c1.95-.5 4.11-.79 6.5-.84zm-29.06 48.4c1.22.74 2.55 1.33 4 1.66l-10.79 10.79c-1.11-.78-2.15-1.64-3.09-2.57l9.88-9.88zm51.459-45.8l-36.46 36.47c-.93-.9-1.87-1.87-2.78-2.89l34.46-34.46c1.71.32 3.3.63 4.78.88zm61.57-36.57L27.487 131.47c-1.63-.19-3.26-.45-4.87-.79l92.61-92.61c4.16-2.56 8.67-5.19 13.49-7.83zm-77.699 102.7c.11-1.58.17-3.05.17-4.41-.76.46-1.66.89-2.68 1.26l116.81-116.81c2.98-1.18 6.03-2.35 9.14-3.48L51.018 132.94zM206.377 2.58L48.367 160.59c.07-1.94.21-3.98.39-6.05L202.637.66c.83-.23 1.68-.44 2.52-.66.41.87.82 1.73 1.22 2.58zm7.77 17.23L50.487 183.47c-.31-1.64-.59-3.26-.83-4.83l162.78-162.78c.58 1.33 1.15 2.65 1.71 3.95zm7.221 17.78L55.228 203.73c-.42-1.49-.81-2.98-1.2-4.46l165.76-165.76c.54 1.38 1.07 2.74 1.58 4.08zm6.409 18.59L61.047 222.91c-.48-1.42-.94-2.84-1.39-4.27l166.76-166.76c.47 1.45.92 2.88 1.36 4.3zm5.241 19.76L67.598 241.36c-.51-1.36-1.03-2.73-1.54-4.12l165.9-165.9c.38 1.55.73 3.09 1.06 4.6zm3.429 21.57L74.827 259.13c-.56-1.29-1.13-2.61-1.7-3.96l162.75-162.75c.21 1.72.41 3.41.57 5.09zm.841 18.5c0 1.93-.04 3.85-.11 5.77L86.698 272.26a333.05 333.05 0 00-4.35 2.7c-.45-.84-.9-1.72-1.37-2.64l156.31-156.31zm-1.731 26.73c-.24 2.13-.5 4.27-.77 6.43l-93.81 93.81a444.41 444.41 0 00-10.9 5.24l105.48-105.48zm-3.829 28.83c-.31 2.15-.61 4.34-.91 6.57l-49.11 49.11c-2.72.78-5.47 1.65-8.24 2.58l58.26-58.26zm-3.6 28.6c-.22 2.06-.43 4.15-.63 6.29l-15.81 15.81c-1.91-.01-3.88.08-5.91.25l22.35-22.35z" fill="#9E1B1E"/></svg>
